X: 1282
T: Körfezde Meltem
C: İsmail Ötenkaya
O: Turkey
F: http://compmusic.upf.edu/node/140
N: nihavent--sarki--sofyan--korfezde_meltem--ismail_otenkaya
N: makam= nihavent
N: form= sarki
N: usul= sofyan = 4/4
M: 4/4
L: 1/16
K: C _B _e  
Q: 1/4=96
%%MIDI tuningsystem comma53
z2G2 B2d2 g2a2 b2g2  | e16  | z2b2 g2e2 f2g2 a2f2  | d16  | \
w:   |   |   |   | 
z2f2 e2d2 c2d2 e2c2  | 
w:   | 
A16  | z2d2 ^c2d2 d2c2 d2B2  | G16  | z2G2 B2d2 g2a2 b2g2  | e16  | \
w:   |   |   |   |   | 
z2b2 g2e2 f2g2 a2f2  | 
w:   | 
d16  | z2f2 e2d2 c2d2 e2c2  | A16  | z2d2 ^c2d2 d2c2 d2B2  | G16  | \
w:   |   |   |   |   | 
z2G2 A3B c2d2 e3f  | 
w:  Kör fez de  mel tem  e sin  | 
d16  | z2b2 a3g f2e4df  | e16  | z2e2 e3e ed3 d3A  | \
w:  ce   |  saç la rın  tel  tel  u çu  |  şur    |  Nem le nir  gü zel  göz le  | 
c6B2 B8  | 
w:  rin   | 
z2BB B4 AB3 B2AB  | G16  | z2G2 A3B c2d2 e3f  | d16  | \
w:  yü re ğin  ya nar  *  tu tu  |  şur    |  Kör fez de  mel tem  e sin  |  ce   | 
z2b2 a3g f2e4df  | 
w:  saç la rın  tel  tel  u çu  | 
e16  | z2e2 e3e ed3 d3A  | c6B2 B8  | z2BB B4 AB3 B2AB  | 
w:  şur    |  Nem le nir  gü zel  göz le  |  rin   |  yü re ğin  ya nar  *  tu tu  | 
G16  | z2bb b4 b3a g3a  | b16  | c'3c' c'3c' c'4 b2a2  | a16  | \
w:  şur    |  Yü zü nü  ör ter_ el le  |  rin   |  sak la nır  gi bi  her kes  |  ten    | 
z2b2 ag3 fe3 d3e  | 
w:  Nem le nir  gü zel  göz le  | 
c6=B2 _B8  | z2BB B4 AB3 B2AB  | G16  | \
w:  rin   |  yü re ğin  ya nar  *  tu tu  |  şur    | 
z2bb b4 b3a g3a  | 
w:  Yü zü nü  ör ter_ el le  | 
b16  | c'3c' c'3c' c'4 b2a2  | a16  | z2b2 ag3 fe3 d3e  | \
w:  rin   |  sak la nır  gi bi  her kes  |  ten    |  Nem le nir  gü zel  göz le  | 
c6=B2 _B8  | z2BB B4 AB3 B2AB  | 
w:  rin   |  yü re ğin  ya nar  *  tu tu  | 
G16  | z2G2 B2d2 g2a2 b2g2  | e16  | z2b2 g2e2 f2g2 a2f2  | d16  | \
w:  şur    |   |   |   |   | 
z2f2 e2d2 c2d2 e2c2  | 
w:   | 
A16  | z2d2 ^c2d2 d2c2 d2B2  | G16  | z2G2 B2d2 g2a2 b2g2  | e16  | \
w:   |   |   |   |   | 
z2b2 g2e2 f2g2 a2f2  | 
w:   | 
d16  | z2f2 e2d2 c2d2 e2c2  | A16  | z2d2 ^c2d2 d2c2 d2B2  | G16  | \
w:   |   |   |   |   | 
z3G A2B2 cd3 e3f  | 
w:  Gü ver cin  gi bi  nâ ze  | 
d16  | z2b2 a3g f4 d3f  | e16  | z2e2 ee3 ed3 d=B3  | \
w:  nin   |  bir  dal  gi bi  in ce  |  cik    |  Hüz nü ne  da lıp  gi der  | 
c6=B2 _B8  | z3B B3B AB3 AB3  | 
w:  sin   |  i çin de  so lar  ge lin  | 
G16  | z3G A2B2 cd3 e3f  | d16  | z2b2 a3g f4 d3f  | e16  | \
w:  cik    |  Gü ver cin  gi bi  nâ ze  |  nin   |  bir  dal  gi bi  in ce  |  cik    | 
z2e2 ee3 ed3 d=B3  | 
w:  Hüz nü ne  da lıp  gi der  | 
c6=B2 _B8  | z3B B3B AB3 AB3  | G16  | z2b2 b3b ^9/8a3=a ga3  | b16  | 
w:  sin   |  i çin de  so lar  ge lin  |  cik    |  Kör fez de  mel tem_ e sin  |  ce   | 
z2c'2 c'c'3 c'2c'4ba  | a16  | z2b2 ag3 fe3 d3e  | \
w:  saç la rın  tel  tel  u çu  |  şur    |  Nem le nir  gü zel  göz le  | 
c6=B2 _B8  | z2BB B4 AB3 B2AB  | 
w:  rin   |  yü re ğin  ya nar  *  tu tu  | 
G16  | z2b2 b3b ^9/8a3=a ga3  | b16  | z2c'2 c'c'3 c'2c'4ba  | a16  | \
w:  şur    |  Kör fez de  mel tem_ e sin  |  ce   |  saç la rın  tel  tel  u çu  |  şur    | 
z2b2 ag3 fe3 d3e  | 
w:  Nem le nir  gü zel  göz le  | 
c6=B2 _B8  | z2BB B4 AB3 B2AB  | G16  | |


